images/gen-slider/1.svg

<svg width="215" height="35" viewBox="0 0 215 35" fill="none" xmlns="http://www.w3.org/2000/svg">
<path d="M23.4409 24.064H29.2369C28.0869 30.458 23.1649 34.598 15.8509 34.598C11.0209 34.598 7.20293 33.034 4.48893 29.906C1.77493 26.732 0.39493 22.638 0.39493 17.578C0.39493 12.518 1.77493 8.424 4.48893 5.296C7.24893 2.122 11.0669 0.557997 15.8969 0.557997C19.3469 0.557997 22.1989 1.432 24.4989 3.226C26.7989 4.974 28.2709 7.32 28.8689 10.264H23.0729C22.0609 7.136 19.6689 5.572 15.8969 5.572C12.6769 5.572 10.2389 6.722 8.53693 8.976C6.83493 11.23 6.00693 14.128 6.00693 17.578C6.00693 21.074 6.83493 23.972 8.49093 26.226C10.1929 28.48 12.6309 29.584 15.8509 29.584C19.8529 29.584 22.5669 27.56 23.4409 24.064ZM57.4137 14.496V1.156H62.9337L62.9337 34H57.4137L57.4137 19.648H40.9917L40.9917 34H35.4717L35.4717 1.156H40.9917V14.496H57.4137ZM71.1002 34L71.1002 1.156H76.6202L76.6202 34H71.1002ZM106.277 24.064L112.073 24.064C110.923 30.458 106.001 34.598 98.6869 34.598C93.8569 34.598 90.0389 33.034 87.3249 29.906C84.6109 26.732 83.2309 22.638 83.2309 17.578C83.2309 12.518 84.6109 8.424 87.3249 5.296C90.0849 2.122 93.9029 0.557997 98.7329 0.557997C102.183 0.557997 105.035 1.432 107.335 3.226C109.635 4.974 111.107 7.32 111.705 10.264L105.909 10.264C104.897 7.136 102.505 5.572 98.7329 5.572C95.5129 5.572 93.0749 6.722 91.3729 8.976C89.6709 11.23 88.8429 14.128 88.8429 17.578C88.8429 21.074 89.6709 23.972 91.3269 26.226C93.0289 28.48 95.4669 29.584 98.6869 29.584C102.689 29.584 105.403 27.56 106.277 24.064ZM145.862 34H140.204L137.168 24.57H123.69L120.7 34H115.18L126.082 1.156H134.914L145.862 34ZM131.372 6.538H129.394L125.254 19.648H135.558L131.372 6.538ZM163.771 20.844V16.152H178.307V19.74C178.307 27.33 174.351 34.598 164.185 34.598C159.263 34.598 155.445 33.034 152.731 29.86C150.017 26.686 148.637 22.592 148.637 17.578C148.637 12.518 150.017 8.424 152.731 5.296C155.491 2.122 159.309 0.557997 164.231 0.557997C171.269 0.557997 176.053 4.238 177.341 10.126H171.591C170.671 7.09 168.233 5.572 164.231 5.572C160.965 5.572 158.481 6.676 156.779 8.93C155.077 11.184 154.249 14.036 154.249 17.578C154.249 21.12 155.077 24.018 156.779 26.272C158.481 28.526 160.965 29.63 164.231 29.63C169.751 29.63 172.603 26.318 172.741 20.844H163.771ZM187.412 5.342C190.172 2.168 194.036 0.557997 198.958 0.557997C203.88 0.557997 207.744 2.168 210.458 5.342C213.218 8.516 214.598 12.61 214.598 17.578C214.598 22.546 213.218 26.64 210.458 29.814C207.744 32.988 203.88 34.598 198.958 34.598C194.036 34.598 190.172 32.988 187.412 29.814C184.652 26.64 183.272 22.546 183.272 17.578C183.272 12.61 184.652 8.516 187.412 5.342ZM191.414 26.18C193.116 28.434 195.646 29.584 198.958 29.584C202.27 29.584 204.754 28.434 206.456 26.18C208.158 23.926 208.986 21.028 208.986 17.578C208.986 14.128 208.158 11.23 206.456 8.976C204.754 6.722 202.27 5.572 198.958 5.572C195.646 5.572 193.116 6.722 191.414 8.976C189.712 11.23 188.884 14.128 188.884 17.578C188.884 21.028 189.712 23.926 191.414 26.18Z" fill="white"/>
</svg>

<svg width="215" height="35" fill="none" xmlns="http://www.w3.org/2000/svg"><path d="M23.44 24.064h5.797c-1.15 6.394-6.072 10.534-13.386 10.534-4.83 0-8.648-1.564-11.362-4.692C1.775 26.732.395 22.638.395 17.578s1.38-9.154 4.094-12.282C7.249 2.122 11.067.558 15.897.558c3.45 0 6.302.874 8.602 2.668 2.3 1.748 3.772 4.094 4.37 7.038h-5.796c-1.012-3.128-3.404-4.692-7.176-4.692-3.22 0-5.658 1.15-7.36 3.404s-2.53 5.152-2.53 8.602c0 3.496.828 6.394 2.484 8.648 1.702 2.254 4.14 3.358 7.36 3.358 4.002 0 6.716-2.024 7.59-5.52zm33.974-9.568V1.156h5.52V34h-5.52V19.648H40.992V34h-5.52V1.156h5.52v13.34h16.422zM71.1 34V1.156h5.52V34H71.1zm35.177-9.936h5.796c-1.15 6.394-6.072 10.534-13.386 10.534-4.83 0-8.648-1.564-11.362-4.692-2.714-3.174-4.094-7.268-4.094-12.328s1.38-9.154 4.094-12.282C90.085 2.122 93.903.558 98.733.558c3.45 0 6.302.874 8.602 2.668 2.3 1.748 3.772 4.094 4.37 7.038h-5.796c-1.012-3.128-3.404-4.692-7.176-4.692-3.22 0-5.658 1.15-7.36 3.404s-2.53 5.152-2.53 8.602c0 3.496.828 6.394 2.484 8.648 1.702 2.254 4.14 3.358 7.36 3.358 4.002 0 6.716-2.024 7.59-5.52zM145.862 34h-5.658l-3.036-9.43H123.69L120.7 34h-5.52l10.902-32.844h8.832L145.862 34zm-14.49-27.462h-1.978l-4.14 13.11h10.304l-4.186-13.11zm32.399 14.306v-4.692h14.536v3.588c0 7.59-3.956 14.858-14.122 14.858-4.922 0-8.74-1.564-11.454-4.738-2.714-3.174-4.094-7.268-4.094-12.282 0-5.06 1.38-9.154 4.094-12.282 2.76-3.174 6.578-4.738 11.5-4.738 7.038 0 11.822 3.68 13.11 9.568h-5.75c-.92-3.036-3.358-4.554-7.36-4.554-3.266 0-5.75 1.104-7.452 3.358s-2.53 5.106-2.53 8.648.828 6.44 2.53 8.694c1.702 2.254 4.186 3.358 7.452 3.358 5.52 0 8.372-3.312 8.51-8.786h-8.97zm23.641-15.502c2.76-3.174 6.624-4.784 11.546-4.784s8.786 1.61 11.5 4.784c2.76 3.174 4.14 7.268 4.14 12.236 0 4.968-1.38 9.062-4.14 12.236-2.714 3.174-6.578 4.784-11.5 4.784s-8.786-1.61-11.546-4.784c-2.76-3.174-4.14-7.268-4.14-12.236 0-4.968 1.38-9.062 4.14-12.236zm4.002 20.838c1.702 2.254 4.232 3.404 7.544 3.404 3.312 0 5.796-1.15 7.498-3.404s2.53-5.152 2.53-8.602-.828-6.348-2.53-8.602c-1.702-2.254-4.186-3.404-7.498-3.404-3.312 0-5.842 1.15-7.544 3.404s-2.53 5.152-2.53 8.602.828 6.348 2.53 8.602z" fill="#fff"/></svg>
